dist/img/icons/main/arrows.svg

<svg width="17" height="21" viewBox="0 0 17 21" fill="none" xmlns="http://www.w3.org/2000/svg">
<path d="M13.5544 4.84826L10.1837 1.24085L11.1371 0.220459L16.1353 5.56986L11.1371 10.9191L10.1837 9.89887L13.5544 6.29131H4.19812V4.84826H13.5544Z" fill="#161C25"/>
<path d="M3.08081 14.7087L6.45159 11.1013L5.49817 10.0809L0.5 15.4303L5.49817 20.7795L6.45159 19.7593L3.08081 16.1517H12.4371V14.7087H3.08081Z" fill="#161C25"/>
</svg>

<svg width="17" height="21" fill="none" xmlns="http://www.w3.org/2000/svg"><path d="M13.554 4.848l-3.37-3.607.953-1.02 4.998 5.349-4.998 5.35-.953-1.021 3.37-3.608H4.198V4.848h9.356zM3.08 14.709L6.453 11.1l-.954-1.02L.5 15.43l4.998 5.348.954-1.02-3.371-3.607h9.356v-1.443H3.081z" fill="#161C25"/></svg>
